EdiMM/images/4drawgrid.svg

<svg width="24" height="24" viewBox="0 0 24 24" fill="none" xmlns="http://www.w3.org/2000/svg">
<path d="M8 20H5C4.73478 20 4.48043 19.8946 4.29289 19.7071C4.10536 19.5196 4 19.2652 4 19V16H8V20ZM8 16H4V8H8V16ZM8 8H4V5C4 4.73478 4.10536 4.48043 4.29289 4.29289C4.48043 4.10536 4.73478 4 5 4H8V8ZM14 20H10V16H14V20ZM14 16H10V10H14V16ZM14 10H10V4H14V10ZM19 20H16V16H20V19C20 19.2652 19.8946 19.5196 19.7071 19.7071C19.5196 19.8946 19.2652 20 19 20ZM20 16H16V10H20V16ZM20 10H16V4H19C19.2652 4 19.5196 4.10536 19.7071 4.29289C19.8946 4.48043 20 4.73478 20 5V10Z" fill="white"/>
</svg>

<svg id="_4drawgrid" data-name="4drawgrid" xmlns="http://www.w3.org/2000/svg" width="24" height="24" viewBox="0 0 24 24">
  <path id="Caminho_19" data-name="Caminho 19" d="M0,0H24V24H0Z" fill="none"/>
  <path id="Caminho_20" data-name="Caminho 20" d="M8,20H5a1,1,0,0,1-1-1V16H8Zm0-4H4V8H8ZM8,8H4V5A1,1,0,0,1,5,4H8Zm6,12H10V16h4Zm0-4H10V10h4Zm0-6H10V4h4Zm5,10H16V16h4v3A1,1,0,0,1,19,20Zm1-4H16V10h4Zm0-6H16V4h3a1,1,0,0,1,1,1Z"/>
</svg>
